humanity-icon-theme/Humanity/actions/24/edit-clear.svg

<?xml version="1.0" encoding="UTF-8" standalone="no"?>
<!-- Created with Inkscape (http://www.inkscape.org/) -->

<svg
   xmlns:svg="http://www.w3.org/2000/svg"
   xmlns="http://www.w3.org/2000/svg"
   xmlns:xlink="http://www.w3.org/1999/xlink"
   version="1.0"
   width="24"
   height="24"
   id="svg2">
  <defs
     id="defs4">
    <linearGradient
       id="linearGradient6019">
      <stop
         id="stop6021"
         style="stop-color:black;stop-opacity:1"
         offset="0" />
      <stop
         id="stop6023"
         style="stop-color:black;stop-opacity:0"
         offset="1" />
    </linearGradient>
    <linearGradient
       id="linearGradient5996">
      <stop
         id="stop5998"
         style="stop-color:#8f5902;stop-opacity:1"
         offset="0" />
      <stop
         id="stop6000"
         style="stop-color:#73521e;stop-opacity:1"
         offset="1" />
    </linearGradient>
    <linearGradient
       id="linearGradient5958">
      <stop
         id="stop5960"
         style="stop-color:#c17d11;stop-opacity:1"
         offset="0" />
      <stop
         id="stop5962"
         style="stop-color:#e9b96e;stop-opacity:1"
         offset="1" />
    </linearGradient>
    <linearGradient
       id="linearGradient5984">
      <stop
         id="stop5986"
         style="stop-color:white;stop-opacity:1"
         offset="0" />
      <stop
         id="stop5988"
         style="stop-color:white;stop-opacity:0.13438736"
         offset="1" />
    </linearGradient>
    <linearGradient
       id="linearGradient5987">
      <stop
         id="stop5989"
         style="stop-color:#b3a10b;stop-opacity:1"
         offset="0" />
      <stop
         id="stop5991"
         style="stop-color:#91780a;stop-opacity:1"
         offset="1" />
    </linearGradient>
    <linearGradient
       id="linearGradient5966">
      <stop
         id="stop5968"
         style="stop-color:#fdef72;stop-opacity:1"
         offset="0" />
      <stop
         id="stop5970"
         style="stop-color:#e2cb0b;stop-opacity:1"
         offset="1" />
    </linearGradient>
    <linearGradient
       id="linearGradient5981">
      <stop
         id="stop5983"
         style="stop-color:white;stop-opacity:1"
         offset="0" />
      <stop
         id="stop5985"
         style="stop-color:white;stop-opacity:0.69411767"
         offset="1" />
    </linearGradient>
    <linearGradient
       id="linearGradient5999">
      <stop
         id="stop6001"
         style="stop-color:#c4a000;stop-opacity:1"
         offset="0" />
      <stop
         id="stop6003"
         style="stop-color:#c4a000;stop-opacity:0"
         offset="1" />
    </linearGradient>
    <linearGradient
       id="linearGradient5974-892">
      <stop
         id="stop2473"
         style="stop-color:#919191;stop-opacity:1"
         offset="0" />
      <stop
         id="stop2475"
         style="stop-color:#cecece;stop-opacity:1"
         offset="1" />
    </linearGradient>
    <radialGradient
       cx="38"
       cy="69"
       r="20"
       fx="28.603323"
       fy="69"
       id="radialGradient2541"
       xlink:href="#linearGradient6019"
       gradientUnits="userSpaceOnUse"
       gradientTransform="matrix(1,0,0,0.45,0,37.95)" />
    <linearGradient
       x1="28"
       y1="16"
       x2="26"
       y2="8"
       id="linearGradient2543"
       xlink:href="#linearGradient5958"
       gradientUnits="userSpaceOnUse"
       gradientTransform="matrix(0.5249934,0,0,0.5276959,-1.1748652,-0.7794711)" />
    <linearGradient
       x1="30.324829"
       y1="9.2407961"
       x2="34"
       y2="18"
       id="linearGradient2545"
       xlink:href="#linearGradient5996"
       gradientUnits="userSpaceOnUse"
       gradientTransform="matrix(0.5249934,0,0,0.5276959,-1.1748652,-0.7794711)" />
    <linearGradient
       x1="28"
       y1="8"
       x2="33.447109"
       y2="16.685888"
       id="linearGradient2547"
       xlink:href="#linearGradient5984"
       gradientUnits="userSpaceOnUse" />
    <linearGradient
       x1="20.933708"
       y1="25.060659"
       x2="30.208115"
       y2="30.742676"
       id="linearGradient2549"
       xlink:href="#linearGradient5966"
       gradientUnits="userSpaceOnUse"
       gradientTransform="matrix(0.5249934,0,0,0.5276959,-1.1748652,-0.7794711)" />
    <linearGradient
       x1="17.032078"
       y1="27.446827"
       x2="29.494455"
       y2="37.845814"
       id="linearGradient2551"
       xlink:href="#linearGradient5987"
       gradientUnits="userSpaceOnUse"
       gradientTransform="matrix(0.5249934,0,0,0.5276959,-1.1748652,-0.7794711)" />
    <linearGradient
       x1="22.319767"
       y1="41.955986"
       x2="18.985712"
       y2="37.029255"
       id="linearGradient2553"
       xlink:href="#linearGradient5981"
       gradientUnits="userSpaceOnUse"
       gradientTransform="matrix(0.5249934,0,0,0.5276959,-1.1748652,-0.7794711)" />
    <linearGradient
       x1="27.354809"
       y1="36.218422"
       x2="23.489431"
       y2="34.728424"
       id="linearGradient2555"
       xlink:href="#linearGradient5999"
       gradientUnits="userSpaceOnUse"
       gradientTransform="matrix(0.5249934,0,0,0.5276959,-1.1748651,-0.779471)" />
    <linearGradient
       x1="27.651777"
       y1="23.145937"
       x2="21.59099"
       y2="20.618719"
       id="linearGradient2557"
       xlink:href="#linearGradient5974-892"
       gradientUnits="userSpaceOnUse"
       gradientTransform="matrix(0.5128237,0,0,0.5276959,-0.8465674,-0.7794711)" />
  </defs>
  <g
     id="layer1">
    <g
       transform="translate(-0.4749642,0)"
       id="g2524">
      <path
         d="m 58,69 a 20,9 0 1 1 -40,0 20,9 0 1 1 40,0 z"
         transform="matrix(0.5249934,0,0,0.3517973,-7.474785,-3.417955)"
         id="path6017"
         style="opacity:0.25;fill:url(#radialGradient2541);fill-opacity:1;stroke:none" />
      <path
         d="M 18.036612,0.52327815 C 13.729978,0.57902938 13.103354,9.0970312 11.867939,10.631952 l 2.099973,0.758564 C 15.349629,9.0831406 22.239708,1.4128433 18.463169,0.53976861 18.316439,0.52342635 18.175536,0.52147974 18.036612,0.52327815 z M 17.495213,1.611651 c 0.101618,-0.00989 0.19319,0.00302 0.278902,0.049472 0.342852,0.1858136 0.379914,0.7888406 0.08203,1.3357301 -0.297885,0.5468898 -0.821981,0.8454336 -1.164829,0.65962 C 16.348468,3.4706588 16.311403,2.8676321 16.609286,2.3207424 16.8327,1.910575 17.190356,1.6413159 17.495213,1.611651 z"
         id="path5371"
         style="fill:url(#linearGradient2543);fill-opacity:1;fill-rule:evenodd;stroke:url(#linearGradient2545);stroke-width:1.00000024px;stroke-linecap:butt;stroke-linejoin:miter;stroke-opacity:1" />
      <path
         d="m 36.625,4.4375 c -1.40362,0.018077 -2.407675,0.6240676 -3.46875,1.90625 -1.061075,1.2821824 -2.011219,3.2438178 -2.78125,5.34375 -0.770031,2.099932 -1.387991,4.324349 -1.96875,6.28125 -0.277069,0.933601 -0.502012,1.785823 -0.78125,2.5625 l 0.46875,0.1875 c 1.805094,-2.666031 4.739135,-6.290408 7.03125,-10 C 36.422268,8.6192319 37.357092,6.6147234 37.53125,5.5 37.618329,4.9426383 37.520945,4.6926819 37.5,4.65625 37.481596,4.6242373 37.386855,4.5666325 37.03125,4.46875 36.905913,4.4608846 36.790629,4.4353668 36.625,4.4375 z"
         transform="matrix(0.5249934,0,0,0.5276959,-1.1748651,-0.779471)"
         id="path5992"
         style="opacity:0.26666667;fill:none;stroke:url(#linearGradient2547);stroke-width:1.89990234px;stroke-linecap:butt;stroke-linejoin:miter;stroke-opacity:1" />
      <path
         d="m 10.637486,7.9275114 c 0.372486,1.0569785 -0.284225,1.9724385 -0.524993,2.6384796 -2.7255386,0.815646 -4.6130126,5.120617 -7.4195126,7.36325 0.3505842,0.368014 0.7624093,0.762086 1.1195917,1.079885 l 2.1327856,-1.863427 -1.6104466,2.387638 c 1.1598348,0.945095 2.3651246,1.586571 3.1526147,1.850421 l 1.4437319,-1.92939 -0.9187385,2.193237 c 0.7622873,0.310751 2.6172418,0.782059 3.6749528,0.791544 l 1.052029,-1.795484 -0.269409,1.828464 c 0.435514,0.08357 1.28002,0.197473 1.842347,0.214377 1.765127,-2.902328 2.099974,-7.6351 1.049988,-9.745884 -0.262497,-1.055392 0.787489,-2.374631 1.57498,-2.902327 C 15.624923,8.9829033 12.629526,7.7672364 10.637486,7.9275114 z"
         id="path5367"
         style="fill:url(#linearGradient2549);fill-opacity:1;fill-rule:evenodd;stroke:url(#linearGradient2551);stroke-width:1.00000012;stroke-linecap:butt;stroke-linejoin:miter;stroke-miterlimit:20;stroke-opacity:1;stroke-dasharray:none" />
      <path
         d="M 4.6000621,19.53682 C 7.12869,16.892591 6.9441696,15.735339 9.9109564,13.453686 8.3451941,16.001629 8.091414,17.327004 6.1750421,20.592212 l -1.57498,-1.055392 z"
         id="path5975"
         style="opacity:0.26666667;fill:#c4a000;fill-rule:evenodd;stroke:none" />
      <path
         d="m 8.3536638,21.490588 2.2816352,-5.192604 c 0.873858,-1.5745 1.501309,-3.150371 2.377681,-4.404863 -0.841016,2.859075 -2.56758,6.396618 -3.9538564,9.828335 L 8.3536638,21.490588 z"
         id="path5979"
         style="opacity:0.41568627;fill:#c4a000;fill-rule:evenodd;stroke:none" />
      <path
         d="m 11.546584,8.8511988 c 0.05079,1.0106149 -0.803019,1.4665882 -0.958317,1.8961872 -0.05465,0.15024 0.278185,0.669248 -0.01074,0.587782 -2.5452545,1.338376 -5.9206918,5.890725 -6.7748527,6.75402 L 10.159774,11.921813 5.8810316,19.15953 c 0.666759,0.542268 0.3940795,0.558876 1.1839086,0.877932 L 12.716056,12.827461 9.3248915,21.07176 c 0.8376635,0.277386 0.7545255,0.226726 1.7240335,0.364504 l 3.60864,-5.958323 -1.107267,6.153253 0.148352,0.04006 c 0.752428,-1.33797 0.726825,-2.292787 1.097939,-3.9036 0.367988,-1.597249 -0.292139,-3.59749 -0.266049,-4.608599 -0.182098,-0.732141 0.428503,-1.535365 0.799075,-2.131329 0.224116,-0.360432 -0.231425,-0.503594 0.04923,-0.773246 C 14.763825,9.8414567 14.443498,9.8410138 13.506641,9.5009628 12.581562,9.1651872 12.285906,8.8610799 11.546584,8.8511988 z"
         id="path6014"
         style="opacity:0.47843137;fill:none;stroke:url(#linearGradient2553);stroke-width:1.00000012px;stroke-linecap:butt;stroke-linejoin:miter;stroke-opacity:1" />
      <path
         d="m 9.8335896,21.911452 c 1.1432074,-3.035239 3.3578124,-5.31334 4.2088264,-8.409052 0.02706,1.932461 0.1311,5.384464 -0.993243,8.821314 -0.167875,9.37e-4 -0.09131,-0.05847 -0.246684,-0.06256 l 0.420412,-3.020803 -1.722759,2.931024 c -1.150159,-0.08249 -0.679662,0.0172 -1.6665524,-0.259923 z"
         id="path5977"
         style="opacity:0.24705882;fill:url(#linearGradient2555);fill-opacity:1;fill-rule:evenodd;stroke:none" />
      <path
         d="m 10.901593,11.151968 c -0.657289,0.325262 -1.0826464,0.80594 -1.5661113,1.247679 0.6438976,-0.373948 1.2489513,-0.764629 2.0997483,-1.04945 l -0.533637,-0.198229 z"
         id="path5995"
         style="opacity:0.48235294;fill:#c4a000;fill-rule:evenodd;stroke:none" />
      <path
         d="m 11.954535,11.389749 -0.533637,1.049449 1.564854,-0.838112 -1.031217,-0.211337 z"
         id="path5997"
         style="opacity:0.48235294;fill:#c4a000;fill-rule:evenodd;stroke:none" />
      <path
         d="M 11.918366,8.6986851 11.448396,9.5994738 12.270393,9.864421 11.918366,8.6986851 z"
         id="path6007"
         style="opacity:0.48235294;fill:#c4a000;fill-rule:evenodd;stroke:none" />
      <path
         d="m 15.584632,9.7139566 -1.291614,0.9685584 0.821997,0.264947 0.469617,-1.2335054 z"
         id="path6009"
         style="opacity:0.48235294;fill:#c4a000;fill-rule:evenodd;stroke:none" />
      <path
         d="m 13.531735,8.6866362 -0.794794,1.3322288 0.821997,0.264947 -0.0272,-1.5971758 z"
         id="path6011"
         style="opacity:0.48235294;fill:#c4a000;fill-rule:evenodd;stroke:none" />
      <path
         d="m 9.8330522,10.842873 c -0.2975558,-1.5648748 4.8996768,1.136077 5.7942578,1.580115 -0.0034,0.569419 0,1.055391 -0.512823,1.055391 -1.347941,-0.735069 -3.430964,-1.902418 -5.2814348,-2.635506 z"
         id="path6013"
         style="opacity:0.2;fill:black;fill-opacity:1;fill-rule:evenodd;stroke:none" />
      <path
         d="m 9.6663183,10.565991 c -0.2564121,-0.527696 0,-1.0553923 0.5128237,-1.0553923 2.09548,0.5147243 3.84551,1.1642203 5.64106,2.1107843 0.256412,0.527696 0,1.055392 -0.512823,1.055392 -1.855297,-0.983847 -3.604977,-1.622567 -5.6410607,-2.110784 z"
         id="path5373"
         style="fill:url(#linearGradient2557);fill-opacity:1;fill-rule:evenodd;stroke:#464646;stroke-width:1.00000024px;stroke-linecap:butt;stroke-linejoin:round;stroke-opacity:1" />
    </g>
  </g>
</svg>

<?xml version="1.0" encoding="UTF-8" standalone="no"?>
<!-- Created with Inkscape (http://www.inkscape.org/) -->
<svg id="svg2" xmlns="http://www.w3.org/2000/svg" height="24" width="24" version="1.0" xmlns:xlink="http://www.w3.org/1999/xlink">
 <defs id="defs4">
  <radialGradient id="radialGradient2541" fx="28.603" gradientUnits="userSpaceOnUse" cy="69" cx="38" gradientTransform="matrix(1 0 0 .45 0 37.95)" r="20">
   <stop id="stop6021" offset="0"/>
   <stop id="stop6023" style="stop-opacity:0" offset="1"/>
  </radialGradient>
  <linearGradient id="linearGradient2543" y2="8" gradientUnits="userSpaceOnUse" x2="26" gradientTransform="matrix(.52499 0 0 .52770 -1.1749 -.77947)" y1="16" x1="28">
   <stop id="stop5960" style="stop-color:#c17d11" offset="0"/>
   <stop id="stop5962" style="stop-color:#e9b96e" offset="1"/>
  </linearGradient>
  <linearGradient id="linearGradient2545" y2="18" gradientUnits="userSpaceOnUse" x2="34" gradientTransform="matrix(.52499 0 0 .52770 -1.1749 -.77947)" y1="9.2408" x1="30.325">
   <stop id="stop5998" style="stop-color:#8f5902" offset="0"/>
   <stop id="stop6000" style="stop-color:#73521e" offset="1"/>
  </linearGradient>
  <linearGradient id="linearGradient2547" y2="16.686" gradientUnits="userSpaceOnUse" x2="33.447" y1="8" x1="28">
   <stop id="stop5986" style="stop-color:#fff" offset="0"/>
   <stop id="stop5988" style="stop-color:#fff;stop-opacity:.13439" offset="1"/>
  </linearGradient>
  <linearGradient id="linearGradient2549" y2="30.743" gradientUnits="userSpaceOnUse" x2="30.208" gradientTransform="matrix(.52499 0 0 .52770 -1.1749 -.77947)" y1="25.061" x1="20.934">
   <stop id="stop5968" style="stop-color:#fdef72" offset="0"/>
   <stop id="stop5970" style="stop-color:#e2cb0b" offset="1"/>
  </linearGradient>
  <linearGradient id="linearGradient2551" y2="37.846" gradientUnits="userSpaceOnUse" x2="29.494" gradientTransform="matrix(.52499 0 0 .52770 -1.1749 -.77947)" y1="27.447" x1="17.032">
   <stop id="stop5989" style="stop-color:#b3a10b" offset="0"/>
   <stop id="stop5991" style="stop-color:#91780a" offset="1"/>
  </linearGradient>
  <linearGradient id="linearGradient2553" y2="37.029" gradientUnits="userSpaceOnUse" x2="18.986" gradientTransform="matrix(.52499 0 0 .52770 -1.1749 -.77947)" y1="41.956" x1="22.32">
   <stop id="stop5983" style="stop-color:#fff" offset="0"/>
   <stop id="stop5985" style="stop-color:#fff;stop-opacity:.69412" offset="1"/>
  </linearGradient>
  <linearGradient id="linearGradient2555" y2="34.728" gradientUnits="userSpaceOnUse" x2="23.489" gradientTransform="matrix(.52499 0 0 .52770 -1.1749 -.77947)" y1="36.218" x1="27.355">
   <stop id="stop6001" style="stop-color:#c4a000" offset="0"/>
   <stop id="stop6003" style="stop-color:#c4a000;stop-opacity:0" offset="1"/>
  </linearGradient>
  <linearGradient id="linearGradient2557" y2="20.619" gradientUnits="userSpaceOnUse" x2="21.591" gradientTransform="matrix(.51282 0 0 .52770 -.84657 -.77947)" y1="23.146" x1="27.652">
   <stop id="stop2473" style="stop-color:#919191" offset="0"/>
   <stop id="stop2475" style="stop-color:#cecece" offset="1"/>
  </linearGradient>
 </defs>
 <g id="layer1">
  <g id="g2524" transform="translate(-.47496)">
   <path id="path6017" style="opacity:.25;fill:url(#radialGradient2541)" d="m58 69a20 9 0 1 1 -40 0 20 9 0 1 1 40 0z" transform="matrix(.52499 0 0 .35180 -7.4748 -3.418)"/>
   <path id="path5371" style="fill-rule:evenodd;stroke:url(#linearGradient2545);stroke-width:1px;fill:url(#linearGradient2543)" d="m18.037 0.52328c-4.307 0.05575-4.934 8.5737-6.169 10.109l2.1 0.75856c1.382-2.3079 8.272-9.9782 4.495-10.851-0.147-0.01657-0.287-0.01852-0.426-0.01672zm-0.542 1.0884c0.10162-0.00989 0.19319 0.00302 0.2789 0.049472 0.34285 0.18581 0.37991 0.78884 0.08203 1.3357-0.29788 0.54689-0.82198 0.84543-1.1648 0.65962-0.343-0.1858-0.38-0.7889-0.082-1.3358 0.224-0.4101 0.581-0.6794 0.886-0.709z"/>
   <path id="path5992" style="opacity:.26667;stroke:url(#linearGradient2547);stroke-width:1.8999px;fill:none" d="m36.625 4.4375c-1.4036 0.018077-2.4077 0.62407-3.4688 1.9062-1.0611 1.2822-2.0112 3.2438-2.7812 5.3438-0.77003 2.0999-1.388 4.3243-1.9688 6.2812-0.27707 0.9336-0.50201 1.7858-0.78125 2.5625l0.46875 0.1875c1.8051-2.666 4.7391-6.2904 7.0312-10 1.297-2.1008 2.232-4.1053 2.406-5.22 0.087-0.5574-0.01-0.8073-0.031-0.8438-0.018-0.032-0.113-0.0896-0.469-0.1874-0.125-0.0079-0.24-0.0334-0.406-0.0313z" transform="matrix(.52499 0 0 .52770 -1.1749 -.77947)"/>
   <path id="path5367" style="fill-rule:evenodd;stroke:url(#linearGradient2551);stroke-miterlimit:20;fill:url(#linearGradient2549)" d="m10.637 7.9275c0.37249 1.057-0.28422 1.9724-0.52499 2.6385-2.7255 0.81565-4.613 5.1206-7.4195 7.3632 0.35058 0.36801 0.76241 0.76209 1.1196 1.0799l2.1328-1.8634-1.6104 2.3876c1.1598 0.9451 2.3651 1.5866 3.1526 1.8504l1.4437-1.9294-0.91874 2.1932c0.76229 0.31075 2.6172 0.78206 3.675 0.79154l1.052-1.7955-0.26941 1.8285c0.43551 0.08357 1.28 0.19747 1.8423 0.21438 1.7651-2.9023 2.1-7.6351 1.05-9.7459-0.2625-1.0554 0.78749-2.3746 1.575-2.9023-1.312-1.0561-4.307-2.2718-6.3-2.1115z"/>
   <path id="path5975" style="opacity:.26667;fill:#c4a000;fill-rule:evenodd" d="m4.6001 19.537c2.5286-2.644 2.3441-3.802 5.3109-6.083-1.5658 2.548-1.8196 3.873-3.736 7.138l-1.575-1.0554z"/>
   <path id="path5979" style="opacity:.41569;fill:#c4a000;fill-rule:evenodd" d="m8.3537 21.491 2.2816-5.1926c0.87386-1.5745 1.5013-3.1504 2.3777-4.4049-0.84102 2.8591-2.5676 6.3966-3.9539 9.8283l-0.7051-0.23z"/>
   <path id="path6014" style="opacity:.47843;stroke:url(#linearGradient2553);stroke-width:1px;fill:none" d="m11.547 8.8512c0.05079 1.0106-0.80302 1.4666-0.95832 1.8962-0.05465 0.15024 0.27818 0.66925-0.01074 0.58778-2.5453 1.3384-5.9207 5.8907-6.7749 6.754l6.357-6.167-4.279 7.238c0.66676 0.54227 0.39408 0.55888 1.1839 0.87793l5.6511-7.211-3.3911 8.245c0.83766 0.27739 0.75453 0.22673 1.724 0.3645l3.6086-5.9583-1.1073 6.1533 0.14835 0.04006c0.75243-1.338 0.72682-2.2928 1.0979-3.9036 0.36799-1.5972-0.29214-3.5975-0.26605-4.6086-0.1821-0.73214 0.4285-1.5354 0.79908-2.1313 0.22412-0.36043-0.23142-0.50359 0.04923-0.77325-0.615-0.4125-0.936-0.413-1.872-0.753-0.925-0.3358-1.221-0.6399-1.96-0.6498z"/>
   <path id="path5977" style="opacity:.24706;fill:url(#linearGradient2555);fill-rule:evenodd" d="m9.8336 21.911c1.1432-3.0352 3.3578-5.3133 4.2088-8.4091 0.02706 1.9325 0.1311 5.3845-0.99324 8.8213-0.16788 0.000937-0.09131-0.05847-0.24668-0.06256l0.42041-3.0208-1.7228 2.931c-1.1502-0.08249-0.67966 0.0172-1.6666-0.25992z"/>
   <path id="path5995" style="opacity:.48235;fill:#c4a000;fill-rule:evenodd" d="m10.902 11.152c-0.65729 0.32526-1.0826 0.80594-1.5661 1.2477 0.6439-0.37395 1.249-0.76463 2.0997-1.0494l-0.53364-0.19823z"/>
   <path id="path5997" style="opacity:.48235;fill:#c4a000;fill-rule:evenodd" d="m11.955 11.39-0.53364 1.0494 1.5649-0.83811-1.0312-0.21134z"/>
   <path id="path6007" style="opacity:.48235;fill:#c4a000;fill-rule:evenodd" d="m11.918 8.6987-0.47 0.9008 0.822 0.2649-0.352-1.1657z"/>
   <path id="path6009" style="opacity:.48235;fill:#c4a000;fill-rule:evenodd" d="m15.585 9.714-1.2916 0.96856 0.822 0.26495 0.46962-1.2335z"/>
   <path id="path6011" style="opacity:.48235;fill:#c4a000;fill-rule:evenodd" d="m13.532 8.6866-0.79479 1.3322 0.822 0.26495-0.0272-1.5972z"/>
   <path id="path6013" style="opacity:.2;fill-rule:evenodd" d="m9.8331 10.843c-0.29756-1.5649 4.8997 1.1361 5.7943 1.5801-0.0034 0.56942 0 1.0554-0.51282 1.0554-1.3479-0.73507-3.431-1.9024-5.2814-2.6355z"/>
   <path id="path5373" style="stroke-linejoin:round;fill-rule:evenodd;stroke:#464646;stroke-width:1px;fill:url(#linearGradient2557)" d="m9.6663 10.566c-0.25641-0.5277 0-1.0554 0.51282-1.0554 2.0955 0.51472 3.8455 1.1642 5.6411 2.1108 0.25641 0.5277 0 1.0554-0.51282 1.0554-1.8553-0.98385-3.605-1.6226-5.6411-2.1108z"/>
  </g>
 </g>
</svg>
